!!!OTL: 174. Waldhorn.
!!!COM: Fr. Silcher
!!!ARE: Europa, Mitteleuropa, Deutschland
!!!SCT: B0174
!!!TXL: @@DE
!!!YEM: Copyright 1995, estate of Helmut Schaffrath.
**kern	**text
*ICvox	*
*Ivox	*
*clefG2	*
*M6/8	*
*k[f#]	*
*G:	*
!LO:TX:a:t=P:only higher voice encoded:problem	!
!LO:TX:a:t=Gemächlich.	!
{8d	Wie
=1	=1
8gL	lieb-
8aJ	.
8b/	-lich
4a	ſchallt
8d	im
=2	=2
8aL	grü-
8bJ	.
8cc/	-nen
4b/}	Wald
{8b/	des
=3	=3
4dd/	Wald-
8b/	-horns
8dd/L	ſü-
8ccJ	.
8b/	-ßer
=4	=4
[4.a	Klang!
8a]	.
8r}	.
{8d	Der
=5	=5
4cc/	Wi-
8cc/	-der-
4b/	-hall
8g	im
=6	=6
4ee/	Ei-
8ee/	-chen-
4dd/}	-thal
{8dd/	hallts
=7	=7
4b7/	noch
8b/	ſo
4a	lang,
8a	ſo
=8	=8
[4.g	lang,
8g]	.
8r}	.
{8dd/	hallts
=9	=9
4b/	noch
8b/	ſo
4a	lang,
8a	ſo
=10	=10
[4.g	lang.
8g]	.
8r}	.
==	==
!!!AGN: Natur -, Wander -, Kinder - Lied, Wald
!!!GTL: Naturfreude, Waldlust, Landleben, Berg- und Wasserfahrt
!!!ONB: ESAC (Essen Associative Code) Database: BOEHME
!!!AMT: compound duple
!!!AIN: vox
!!!EED: Helmut Schaffrath
!!!EEV: 1.0
!!Fr. Silcher (Kinderlieder).
!!@@COMMENT:"Verse von Christoph v. Schmid 1817. Mel. von Fr. Silcher. Weggelaſſen iſt eine
!!ſtörende Strophe vor der 2.. die vom Nachtigallenſchlag handelt, was doch mit Waldhornſchmettem
!!nicht vereinbar iſt."
!!@@END:
!!!Text: Ch. v. Schmid
!!!URL-scan: https://archive.org/details/BoehmeVtLieder1895/page/n171/mode/2up
!!!ENC: Anna Maria Matuszewska
!!!EEV: 2024/21/06
*-	*-
